X:225
M:C|
L:1/8
K:F
c|fgag fefc|d/d/d ba gdde|fgag fcdB|AcGB AFFc|fgag fefc|d/d/d ba gdde|
fcae fcdB|AcGB AF~F||

